X: 2662
T: Bank Of Ireland, The
R: reel
M: 4/4
K: Dmixolydian
|:cAAB cAAG|EGDG EGDB|cAAB cAAG|Addc d2ed:|
f2fd e2ec|d2ed cAAg|f2fd e2ec|cABc d2d2|
faa2 faa2|d2ed cAAG|Addc defg|afge d2||

